src/face-negative.svg

<svg viewBox="0 0 16 16" fill="none" xmlns="http://www.w3.org/2000/svg"><path fill-rule="evenodd" clip-rule="evenodd" d="M8 14.125C11.3827 14.125 14.125 11.3827 14.125 8C14.125 4.61726 11.3827 1.875 8 1.875C4.61726 1.875 1.875 4.61726 1.875 8C1.875 11.3827 4.61726 14.125 8 14.125ZM8 15C11.866 15 15 11.866 15 8C15 4.13401 11.866 1 8 1C4.13401 1 1 4.13401 1 8C1 11.866 4.13401 15 8 15Z" fill="#111111"/><path fill-rule="evenodd" clip-rule="evenodd" d="M6.58864 9.85252C6.23449 10.1181 6.00277 10.5056 6.00277 11.0433H5.12777C5.12777 10.2113 5.50473 9.57169 6.06364 9.15252C6.61011 8.74266 7.31616 8.55143 8.00005 8.55143C8.68394 8.55143 9.38999 8.74267 9.93646 9.15252C10.4954 9.5717 10.8723 10.2113 10.8723 11.0433H9.99733C9.99733 10.5057 9.7656 10.1181 9.41146 9.85252C9.04489 9.57759 8.53355 9.42643 8.00005 9.42643C7.46654 9.42643 6.9552 9.57759 6.58864 9.85252Z" fill="#111111"/><path d="M6.47819 6.1744C6.47819 6.67866 6.0694 7.08744 5.56514 7.08744C5.06088 7.08744 4.6521 6.67866 4.6521 6.1744C4.6521 5.67014 5.06088 5.26135 5.56514 5.26135C6.0694 5.26135 6.47819 5.67014 6.47819 6.1744Z" fill="#111111"/><path d="M11.3477 6.1744C11.3477 6.67866 10.9389 7.08744 10.4347 7.08744C9.93042 7.08744 9.52164 6.67866 9.52164 6.1744C9.52164 5.67014 9.93042 5.26135 10.4347 5.26135C10.9389 5.26135 11.3477 5.67014 11.3477 6.1744Z" fill="#111111"/></svg>

<svg viewBox="0 0 16 16" fill="none" xmlns="http://www.w3.org/2000/svg"><path fill-rule="evenodd" clip-rule="evenodd" d="M8 14.125a6.125 6.125 0 1 0 0-12.25 6.125 6.125 0 0 0 0 12.25ZM8 15A7 7 0 1 0 8 1a7 7 0 0 0 0 14Z" fill="#111111"/><path fill-rule="evenodd" clip-rule="evenodd" d="M6.589 9.853a1.42 1.42 0 0 0-.586 1.19h-.875c0-.832.377-1.471.936-1.89C6.61 8.743 7.316 8.55 8 8.55c.684 0 1.39.192 1.936.602.56.419.936 1.058.936 1.89h-.875a1.42 1.42 0 0 0-.586-1.19c-.366-.275-.877-.427-1.41-.427-.534 0-1.046.152-1.412.427Z" fill="#111111"/><path d="M6.478 6.174a.913.913 0 1 1-1.826 0 .913.913 0 0 1 1.826 0Zm4.87 0a.913.913 0 1 1-1.826 0 .913.913 0 0 1 1.826 0Z" fill="#111111"/></svg>
